X: 155
T: Concerto	 Op. 21
C: Fryderyk Chopin
%%abc-version 2.0
%%abcx-abcm2ps-target-version 5.9.1 (29 Sep 2008)
%%abc-creator hum2abc beta
%%abcx-conversion-date 2021/10/03 11:23:38
%%abc-edited-by Wojciech Jakubiak-Danek
%%abc-edited-by Emilia Ziętek
%%abc-edited-by Zofia Niedbalska
%%abcx-initial-encoding-date 2019-03-28
%%humdrum-veritas 612289899
%%humdrum-veritas-data 209003796
%%linebreak <none>
%%barnumbers 0
L: 1/16
M: C
N: Derived from 021-1a-Sm-001.krn
P: Second Concerto Pour le Piano Avec Acct. d'Orchestre
Q: "Maestoso [quarter] = 138" 1/4=138
%%staves {1 2}
V: 1 clef=treble
V: 2 clef=bass
K: Ab
[V:1] f2<A2B [I:setbarnb 1]| 
[V:2] zz4 | 
[V:1] c16 | 
[V:2] z4[A4F4][G4=E4][_G4_E4] | 
[V:1] B8A4G4 & F12x4 | 
[V:2] =D4_D4C4[D4B,4] | 
[V:1] {/G} F2>=E2F2>G2A4[F4=B,4] | 
[V:2] [C4A,4][B,4G,4][A,4F,4][A,4D,4] | 
[V:1] !accent![F8C8A,8][=E2C2G,2] z D2<G,2A, | 
[V:2] C,8-x8 & z4C,,4C,2 z D,2<!accent!G,,2A,, | 
[V:1] B,2 z2!accent![f4B4F4][=e2B2G2] z D2<G,2A, | 
[V:2] B,,2 x2[D,4D,,4][C,2C,,2] z D,2<!accent!G,,2A,, | 
[V:1] B,2 z2[b4f4B4].!accent![b2=e2B2] z B2<g2f | 
[V:2] B,,2 z2[_D,4_D,,4].[C,2C,,2] z B,2<G2F | 
[V:1] x4[d'8d8]c'3b & .=e4g2>f2=e4[g4c4] | 
[V:2] =E4!accent![=E,2=E,,2]>[F,2F,,2][G,4G,,4][E,4E,,4] | 
[V:1] [a2f2c2]>[g2=e2B2] !accent![f2c2] z2z8 | 
[V:2] [F,2F,,2]>[G,2G,,2][A,4A,,4]>F,4C,2A,,2 | 
[V:1] F8A8 | 
[V:2] A,2A,2A,2A,2 [F2A,2][F2A,2][F2A,2][F2A,2] & F,,2F,4=B,,2 C,2D,4C,2 | 
[V:1] G4{/B} A2>G2 G2!accent!f4f2 & [F2D2][F2D2][F2D2][F2D2] [F2D2][F2D2][F2D2][F2D2] | 
[V:2] B,,2D,2F,,2D,2B,,8 | 
[V:1] A8=A6B2 & [F2C2][F2C2][F2C2][F2C2] [F2C2][F2C2][F2C2][F2B,2] | 
[V:2] C,2F,4=B,,2 C,2E,4D,2 | 
[V:1] B4{/d} c2>B2 B2!accent!f4f2 & [B2F2B,2][F2B,2]F2F2 F2[B2F2][B2F2][B2F2] | 
[V:2] [D,4D,,4][F,2F,,2][B,2B,,2][D8D,8] | 
[V:1] =B2 x2x8x4 & F2!accent![a4A4][=e2=E2] [f2F2]!accent![g4G4][f2F2] | 
[V:2] [D,2D,,2][_C2F,2D,2][C2F,2D,2][B,2G,2D,2] [C2A,2D,2][B,2=E,2D,2][B,2E,2D,2][=B,2F,2D,2] | 
[V:1] [f2F2]!accent![a4A4][=e2=E2] [f2F2]!accent![g4G4][f2F2] | 
[V:2] [=C2A,2C,2][A,2F,2C,2][A,2F,2C,2][B,2G,2C,2] [C2A,2C,2][B,2=E,2C,2][B,2E,2C,2][A,2F,2C,2] | 
[V:1] [f2F2]!accent![a'4a4][=d'2=d2] [f'2f2]!accent![g'4g4][f'2f2] | 
[V:2] [=B,,2=B,,,2][=D2A,2F,2][D2A,2F,2][D2A,2F,2] [=B,2A,2=D,2][B,2G,2D,2][B,2G,2D,2][B,2A,2D,2] | 
[V:1] [e'2e2]!accent![f'4f4][e'2e2] [d'2d2]!accent![e'4e4][d'2d2] | 
[V:2] [C2A,2E,2][C2A,2E,2][C2A,2E,2][C2A,2E,2] [B,2G,2E,2][B,2G,2E,2][B,2G,2=E,2][B,2G,2E,2] | 
[V:1] [c'4c4]=bc'd'c'[f'4f4][_b4B4] | 
[V:2] [A,2F,2][A,2F,2][=A,2_G,2E,2][A,2G,2E,2] [B,2F,2=D,2][B,2F,2D,2][B,2=G,2_F,2_D,2][B,2G,2F,2D,2] | 
[V:1] [e'4e4]gaba.[d'4d4].[d'4d4] | 
[V:2] [A,2E,2C,2][A,2E,2C,2][A,2E,2C,2][A,2E,2C,2] [G,2D,2B,,2][G,2D,2B,,2][F,2D,2A,,2][F,2D,2A,,2] | 
[V:1] [d'2d2]!accent![d'4b4d4][c'2a2c2] [b2=e2d2][a2f2c2][g2d2G2][f2=d2A2] | 
[V:2] [=E,2B,,2G,,2]!accent![E,4=E,,4][F,2F,,2] [G,2G,,2][A,2A,,2][B,2B,,2][=B,2=B,,2] | 
[V:1] [=e2c2G2]!accent![e4B4G4][e2c2G2] [e2d2G2][f2c2A2][b2e2d2][b2f2d2] | 
[V:2] [C2C,2][D4D,4][C2C,2] [B,2B,,2][A,2A,,2][G,2G,,2][F,2F,,2] | 
[V:1] [b2g2d2][d'4b4d4][c'2a2c2] [b2=e2d2][a2f2c2][e2c2G2][f2c2F2] | 
[V:2] [=E,2=E,,2]!accent![E,4E,,4][F,2F,,2] [G,2G,,2][A,2A,,2][B,2B,,2][A,2A,,2] | 
[V:1] [_g2e2_G2]!accent![_g'4e'4g4][f'2d'2f2] [e'2=a2g2][d'2b2f2][a2f2c2][b2f2d2] | 
[V:2] [=A,2=A,,2]!accent![A,,4=A,,,4][B,,2B,,,2] [C,2C,,2][D,2D,,2][E,2E,,2][D,2D,,2] | 
[V:1] [d'2_g2d2]!accent!g4f2=e4f4 & x2 [g2d2_G2][d2G2][d2G2] [c2=G2][c2G2][c2F2][c2F2] | 
[V:2] [B,,4B,,,4][B,8B,,8][=A,4=A,,4] | 
[V:1] [_c'2f2_c2]!accent!f4e2=d4e4 & x2 [c2F2][c2F2][c2F2] [B2F2][B2F2][B2E2][B2E2] | 
[V:2] [_A,4_A,,4][A,8A,,8][G,4G,,4] | 
[V:1] [b2e2B2]!accent!e4d2c4_g4 & x2 [B2E2][B2E2][B2F2] [c2=A2_G2][A2G2][c2A2][c2A2] | 
[V:2] [_G,4_G,,4]>[F,4F,,4] [E,2E,,2][E,2E,,2][E,2E,,2][E,2E,,2] | 
[V:1] f4f8=b4 & B2[B2F2] !accent![=B2F2][B2F2][B2F2][B2F2] [f2B2][f2B2] | 
[V:2] [=D,2=D,,2][D,2D,,2] [_D,2_D,,2][D,2D,,2][D,2D,,2][D,2D,,2] [D,2D,,2][D,2D,,2] | 
[V:1] [c'4=e4c4]!accent!c8=d=efg | 
[V:2] [C,2C,,2][G,2=E,2C,2][G,2E,2C,2][G,2E,2C,2] [G,2E,2C,2][G,2E,2C,2][G,2E,2C,2][G,2E,2C,2] | 
[V:1] a4!accent!=d6^cd =efga | 
[V:2] [A,2F,2=D,2=B,,2][A,2F,2D,2B,,2][A,2F,2D,2B,,2][A,2F,2D,2B,,2] [A,2F,2D,2B,,2][A,2F,2D,2B,,2][A,2F,2D,2B,,2][A,2F,2D,2B,,2] | 
[V:1] b4!accent!=e8fgab | 
[V:2] [G,2=E,2_D,2_B,,2][G,2E,2D,2B,,2][G,2E,2D,2B,,2][G,2E,2D,2B,,2] [G,2E,2D,2B,,2][G,2E,2D,2B,,2][G,2E,2D,2B,,2][G,2D,2B,,2] | 
[V:1] [c'4f4c4].[f'4c'4f4]z8 | 
[V:2] [F,4C,4A,,4][A,,4A,,,4]z8 | 
[V:1] f4>e4 f2e2f2d2 & B16 | 
[V:2] [F4D4]>[G4C4] [F2D2][G2C2][F2D2]B,2 | 
[V:1] B4d4-d2c2d2B2 & x4F4-F2_G2F4 | 
[V:2] x8x4D4 & [D4B,4][D4B,4]-[D2B,2][E2=A,2]B,2B,,2 | 
[V:1] =E2!accent!B4A2 G2B2F2B2 | 
[V:2] x4[D8B,8]x4 & [G,4C,4]F,4=E,4[B,4-G,4D,4] | 
[V:1] =E2c2 {/c} B2A2 G2B2F2B2 | 
[V:2] x4[D8B,8]x4 & [B,4G,4C,4]F,4=E,4[B,4G,4D,4] | 
[V:1] =E4[G4C4][A4F4][f4c4A4F4] | 
[V:2] [G,4C,4]z4z2 z [F,2F,,2]<[A,,2A,,,2][B,,B,,,] | 
[V:1] c8c4c4 & [=e2G2=E2] x2x4x8 | 
[V:2] [C,4C,,4]z4z4C4 | 
[V:1] d8c4d2c2 & F4G4A4E4 | 
[V:2] x8A,8- & B,4E,4x4C,4 | 
[V:1] B8A4B2[c2A2] & F4E2D2C4E4- | 
[V:2] [A,4D,4][G,4E,4][A,4A,,4]z4 | 
[V:1] [d4B4E4]d2>d2x4x4 & x4G4[c4A4][a4c4] | 
[V:2] x4E8x4 & G,4E,4A,4[F4F,4] | 
[V:1] g4{/g} f2>e2e6=e2 & B4A4G4B4 | 
[V:2] B,4[=D4B,,4][E4E,4][_D4G,4] | 
[V:1] f4f2>f2f4x4 & c4[e4c4][d4B4][d'4f4] | 
[V:2] x4F8x4 & [=C4A,4]F,4B,4[F4F,4] | 
[V:1] {/[d'f]} [c'2e2]>[b2d2][c'2e2]>[d'2f2][b8d8] | 
[V:2] F12-F2_F2 & =A,4F,4B,4_A,4 | 
[V:1] e4e2>e2a6g2 & d8x4x4 | 
[V:2] E8-x4x4 & G,4E,4[E4A,4][F4F,4] | 
[V:1] x8e8 & {/g} [f2A2]>[e2G2][f2A2]>[g2B2] [G2E2]B2G2B2 | 
[V:2] =D8E,8 & B,4.B,,4x4.E,,4 | 
[V:1] d8c4d3c & A2F2E2B2 A2E2A2E2 | 
[V:2] .[F,4F,,4].[G,4G,,4].[A,4A,,4].E,4 | 
[V:1] c4>B4A4B3c & [G2D2]E2[G2D2]E2 C2E2C2E2 | 
[V:2] .B,4.E,4.A,4.E,4 | 
[V:1] d4d2>d2c4a4 & [G2D2]E2B2E2 A2E2 E2F2 | 
[V:2] .B,4.G,,4.A,,4.A,4 | 
[V:1] [g4e4]{/g} f2>e2e6=e2 & G2B2[=d2A2]B2 G2B2G2B2 | 
[V:2] B,8x8 & x4.B,,4.E,4z4 | 
[V:1] f4f2>f2f4d'4 & [e2c2F2][e2c2F2][e2c2F2][e2c2F2] [d2B2][d2B2] [f2d2][f2d2] | 
[V:2] [=A,2=A,,2][=A,2=A,,2][=A,2=A,,2][=A,2=A,,2] [B,2B,,2][B,2B,,2] [_A,2_A,,2][A,2A,,2] | 
[V:1] [ed]d'[ed]d' [ec]c'[ec]c' [dc]c'[dc]c' [dB]b[dB]b | 
[V:2] [G,2G,,2][G,2G,,2] [A,2A,,2][A,2A,,2] [F,2F,,2][F,2F,,2] [G,2G,,2][G,2G,,2] | 
[V:1] [b4f4B4]f4-f2e2d2c2 & x4!accent![B4G4]A8 | 
[V:2] [_D,4D,,4]D2>D2C4C,4 | 
[V:1] B4f4-f2e2{/e}d2c2 & F4!accent![B4G4]A4E4 | 
[V:2] D,4D2>D2C4C,4 | 
[V:1] x4_c8B2A2 & [B4F4]!accent!F12 | 
[V:2] x4A,8B,2_C2 & D,4=D,8D,4 | 
[V:1] G4[B4G4]-[B2G2][A2F2][G2E2][F2D2] & x4!accent!D4C4B,4 | 
[V:2] [B,4E,4]=E,4F,4G,4 | 
[V:1] [E4C4][d2B2]>[d2B2][c4A4][d4B4] & x4E2>E2E4E3E | 
[V:2] A,4G,4A,4G,4 | 
[V:1] [c4A4][g2d2]>[g2d2].[a4c4].[f4d4] & E4x4A8 | 
[V:2] A,4[B4E4]F4D4 | 
[V:1] [e4B4][d2B2]ed [c2A2E2] z2 [d2B2]ed & x4!accent!_F4x4!accent!F4 | 
[V:2] [G4E4][G,2G,,2]>[G,2G,,2] [A,2A,,2] z2 [G,3G,,3][G,G,,] | 
[V:1] [c4A4][d2G2E2]>[c2A2E2][A4F4][B4G4] & E4x4x8 | 
[V:2] [A,4A,,4][B,2B,,2]>[C2C,2][D4D,4][D4E,4] | 
[V:1] !accent!c4=Bcdcf4=ef_gf | 
[V:2] [C2G,2=E,2][C2G,2E,2][C2G,2E,2][C2G,2E,2] [C2=A,2F,2_E,2][C2A,2F,2E,2][C2A,2F,2E,2][C2A,2F,2E,2] | 
[V:1] b4c'bge.e'4e4 | 
[V:2] [B,2F,2=D,2][B,2F,2D,2][B,2G,2E,2_D,2][B,2G,2E,2D,2] [A,2E,2C,2][A,2E,2C,2][A,2E,2C,2][A,2E,2C,2] | 
[V:1] !accent!A4GABAd4cded | 
[V:2] [A,2F,2D,2C,2][A,2F,2D,2C,2][A,2F,2D,2C,2][A,2F,2D,2C,2] [G,2F,2D,2B,,2][G,2F,2D,2B,,2][G,2F,2D,2B,,2][G,2F,2D,2B,,2] | 
[V:1] c4ag=ec.[c'4f4c4].[f4d4A4F4] | 
[V:2] [G,2=E,2C,2B,,2][G,2E,2C,2B,,2][G,2E,2C,2B,,2][G,2E,2C,2B,,2][F,4C,4A,,4][D4D,4] | 
[V:1] .[b4f4d4B4].[=e4c4G4=E4].[a4c4A4][d4F4] | 
[V:2] .[G,4G,,4][C4C,4].[F,4F,,4]B,,4 | 
[V:1] [c4G4]B2A2[G4=E4B,4][F4A,4] & C8x8 | 
[V:2] [=E,4=E,,4][F,4F,,4][C,4C,,4][D,4D,,4] | 
[V:1] f'4e'2d'2 c'2b2d'2b2 & f4e2d2 c2B2d2B2 | 
[V:2] [D4F,4B,,4]z4z8 | 
[V:1] [f4F4][F4D4F,4][F4B,4][F4D4F,4] | 
[V:2] z4[B,,4B,,,4][F,4D,4D,,4][B,,4B,,,4] | 
[V:1] f'4e'2d'2 c'2b2d'2b2 & f4e2d2 c2B2d2B2 | 
[V:2] [F4B,4G,4D,4]z4z8 | 
[V:1] g4[F4D4G,4][F4B,4G,4][F4D4G,4] & G4x4x4x4 | 
[V:2] z4[B,,4B,,,4][D,4D,,4][B,,4B,,,4] | 
[V:1] [F8B,8G,8][F4D4G,4][F4B,4G,4] | 
[V:2] [D,8D,,8][B,,4B,,,4][D,4D,,4] | 
[V:1] [F8D8G,8][F8B,8G,8] | 
[V:2] [B,,8B,,,8][D,8D,,8][K:clef=treble] | 
[V:1] !accent!d''4-d''g'f'b!accent!d'4-d'gfB | 
[V:2] d'4-d'gfBd4-dGFB,[K:clef=bass] | 
[V:1] !accent!dGFB, !accent!DG,F,B,,!trill!B,,4{/A,,B,,} .C,.B,,.A,,.G,, | 
[V:2] DG,F,B,, D,G,,F,,B,,,B,,,4{/A,,,B,,,} .C,,.B,,,.A,,,.G,,, | 
[V:1] F,,4z4z8 | 
[V:2] F,,,8-F,,,2C,,2F,,2G,,2 | 
[V:1] z8z2 z f2<A2B | 
[V:2] A,,2C,2F,2B,2 A,2C2F2G2 | 
[V:1] c16 & A8x8 | 
[V:2] z4F4[G4=E4][_G4_E4] | 
[V:1] B8A4G4 & F12x4 | 
[V:2] =D4_D4C4[D4B,4] | 
[V:1] {/FG} F2>=E2F2>G2A4F4- | 
[V:2] [C4A,4][B,4G,4][A,4F,4][_C4A,4D,4] | 
[V:1] F6GF =E2 z D2<G,2A, | 
[V:2] =C4=B,4x4x4 & [A,8C,8-][C2G,2C,2] z [D,2D,,2]<[G,,2G,,,2][A,,A,,,] | 
[V:1] B,2 z2!arpeggio![f4B4G4F4][=e2B2G2=E2] z D2<G,2A, | 
[V:2] [B,,2B,,,2] z2!arpeggio![D4B,4G,4D,4][C2B,2G,2C,2] z [D,2D,,2]<[G,,2G,,,2][A,,A,,,] | 
[V:1] B,2 z2!arpeggio![b4g4f4B4][b2g2=e2B2] z B2<g2f | 
[V:2] [B,,2B,,,2] z2!arpeggio![F4B,4G,4D,4][=E2B,2G,2C,2] z[K:clef=treble] B,2<G2F | 
[V:1] =e2 z2 (3:2:6bc'b=abd' (9:8:8=a'z/g'/=e'/d'/b/g/e/ (3:2:6cdGcB=A | 
[V:2] =E2 z2[K:clef=bass][G4D4B,4=E,4]z4[D4B,4E,4] | 
[V:1] !accent!G2>F2F4z2 c2c'2a2 | 
[V:2] [D4B,4][C4A,4]x8 & F,8z8 | 
[V:1] f4=e4f4x4 & A2C2[G2B,2]C2x4d4 | 
[V:2] x8x4A,2C2 & F,8[F2A,2]C2F,4 | 
[V:1] c4>B4 A2 z c (5:4:5d'c'=bc'a | 
[V:2] [=E,2C,2]C2C,2C2 F,2C2A,2C2 | 
[V:1] f4=e4(7:4:15fgfefgbaf=Bcedz/c/ & A2C2[A2B,2][G2C2]x8 | 
[V:2] F,12A,2C2 & F,8[F2A,2]C2F,4 | 
[V:1] c4>B4A4G4 | 
[V:2] x8F,4_E,4 & =E,2G,2C2C,2 F,2C2_E,2C2 | 
[V:1] {/G}!trill!F4-F>=E (5:4:5F/A/d/=e/g/.f4[f'4f4] | 
[V:2] .D,2F,2A,2D2 .A,,2F,2C2A2 | 
[V:1] [a'4a4][g'2g2][f'2f2] [=e'2=e2][f'2f2][b2B2][a2A2] | 
[V:2] .B,,2G,2D2F2 D,2G,2B,2F2 | 
[V:1] [g4G4][a2A2][b2B2] [c'2c2]>[d'2d2][f3F3][gG] | 
[V:2] x4<G,4x2F,4x2 & x4D4x4B,4- | 
[V:1] =e4f4g cdc =Bcc'z/a/ & .=E4.F4.G x x2x4 | 
[V:2] [B,2G,2]C2[A,2F,2]C2 x2 z2z4 & C,8-[G,2=E,2C,2] x2x4 | 
[V:1] f4=e4f4d4 & A2C2[G2B,2]C2x8 | 
[V:2] x8[F2A,2]C2 A,2C2 & F,12F,4 | 
[V:1] c4>B4 A2 z c (3:2:6c'd'=bc'ga | 
[V:2] [G,2=E,2]C2C,2C2 F,2C2A,2C2 | 
[V:1] f4=e4(19:16:20f/g/f/e/f/^f/g/b/a/e/g/=f/=B/c/d/c/_e/d/z//c// & A2C2[A2B,2][G2C2]x8 | 
[V:2] x8[F2A,2]C2[A,2F,2]C2 & F,12x4 | 
[V:1] c6BAG8 | 
[V:2] E,2G,2C2G,2 E2C2G,2E,2 | 
[V:1] {/=EF}!trill!F4-F>=E (5:4:5F/A/c/=e/g/f8 & x4x8F4- | 
[V:2] x8x4B,4- & =D,2F,2C2A,2 _D,2F,2B,2G,2- | 
[V:1] g12a4 & !accent!F4=E2>=D2E4F4 | 
[V:2] [B,2G,2]C2B,2C2 B,2C2A,2C2 & C,12F,4 | 
[V:1] {/ab}!trill!b16{/ab} & a4g2f2g8 | 
[V:2] E,,2E2E,2E2 [D2B,2]E2E,2E2 | 
[V:1] [c'4a4][d'2g2]zf[g4=e4][a4f4] | 
[V:2] C2A2[K:clef=treble] [G2D2B,2]B2 [B2G2C2]c2- [c2A2]c2[K:clef=bass] & A,4x4x4F4 | 
[V:1] {/a} !accent!a'2=d'=e' (5:4:15!accent!g'f'a=b^c' !accent!=e'd'f^g^a !accent!^c'=b=df=g | 
[V:2] =B,,2F,2!accent!A,2=D2 =D,2F,2A,2=B,2 | 
[V:1] (5:4:15b_a=Bd=e gfAB^c e=d=DFG (7:4:7BAFD=B,A,F, | 
[V:2] =B,,2F,2A,2=D2 =D,2F,2A,2=B,2 | 
[V:1] =E,2 [E,C,]F, G,C[_CA,][B,G,] A,=cA,B, =CAGF | 
[V:2] C,,2 C,=D, =E,C,A,G, F,F,,F,G, A,F,_D=B, | 
[V:1] =EgEF Gc_cB A=c'AB =cagf | 
[V:2] CC,C=D =ECAG FF,FG AFd=B[K:clef=treble] | 
[V:1] =eg'ef gc'_c'b a=c''ab =c'a'g'f' | 
[V:2] cC=c=d ecag fFfg af_d'=b | 
[V:1] =e'[c''g']e'[g'd'] c'[e'b]G[c=E] c[gd]c[=eB] G[cE]C[GB,] | 
[V:2] c'2 z2!accent![c4C4][K:clef=bass]!accent![C4C,4]!accent![C,4=E,,4] | 
[V:1] [A2A,2] CF x A2A =ABcB _ADEB & x4GADAx4x DE x | 
[V:2] x4<A,4-A,2G,2F,2G,2 & [C,2F,,2]F,4_F,2E,8 | 
[V:1] cCEc =EcFf _edFG x c2B & x2 E2=E2F4F2 Ac=EB | 
[V:2] A,,2[C2A,2][B,2G,2][A,2F,2] z2 [D2B,,2][C4-C,4] & x8x4A,2G,2 | 
[V:1] x4x a2ax4adeb & FAcf gada =abc'b x de x | 
[V:2] x2[K:clef=treble]A4-x2 A2G2F2G2 & [C2F,2]F4-_F2E8 | 
[V:1] x2 ec'=e2f4x2 x c'2b- & c'cec' =ec'ff' =e'd'fg ac'=e2 | 
[V:2] .A,2[c2A2][B2G2][A2F2] z2 [d2B,2][c4C4] & x8x4A2G2 | 
[V:1] [bf]ac'f' g'a'f'=d' =baf=d _dc!accent![a=e]g | 
[V:2] [c2F2] z2[K:clef=bass][=D8=B,8A,8][=E4_B,4G,4] & x4F,12- | 
[V:1] fac'f' g'a'f'd' bafd !mordent!_dc[a=e]g | 
[V:2] F4!accent![=D8=B,8A,8]!accent![=E4_B,4G,4] & [A,4F,4]F,12- | 
[V:1] fac'f' g'a'f'c' gafc GAFC | 
[V:2] [F4A,4F,4]z2 [A2C2] [F2A,2][C2F,2][A,2C,2]F,2 | 
[V:1] G,A,F,C !accent!GAFc !accent!gafc' !accent!g'a'af' | 
[V:2] F,,4[E,4E,,4][D,4D,,4][C,4C,,4] | 
[V:1] f''2 A,=D ^CD=B,F =EF=DA GAF=B | 
[V:2] .[=B,,2=B,,,2] F,=B,, =E,F,A,=D, G,A,=B,F, ^A,=B,=D_A, | 
[V:1] ^A=B_A=d ^cdBf =efda g^af=b | 
[V:2] ^C=DF=B, =EFA=D GA=BF ^A=B=dG- | 
[V:1] [c'2=e2] =Bc !accent!dfad' c'=bag =bf_ed | 
[V:2] [G2C2] z2F8_E4- & x4[D4A,4F,4][D8B,8G,8] | 
[V:1] ceBA !accent!cGFE =DFCB, !accent!GA,DF & x8x3B,4x | 
[V:2] x4[A,8F,8]x4 & [E4C4A,4]A,,4B,,4!accent![B,,4B,,,4] | 
[V:1] [E2G,2] E=E !accent!F=BcF Bcfc _cB=b=a | 
[V:2] x4C8=D4 & E,,2 z2E,12 | 
[V:1] _age=e f=bc'f =bc'f'c' _c'b=b'=a' | 
[V:2] x4C8=D4 & [E4G,4E,4]E,12- | 
[V:1] _a'g'd''f' _f'e'=d'_d' c'a'c''f' =d'_c'a_f | 
[V:2] [E4G,4E,4][G4D4B,4E,4][A4C4][=D4A,4E,4-] | 
[V:1] egd' f _fe=d_d cac' f =d_cA_F | 
[V:2] x4[K:clef=treble][c2G2]>B2[A4E4C4][K:clef=bass]x4 & [E4G,4E,4][G4E4-D4]x4[=D4A,4] | 
[V:1] EGA=A2< x2f8f & x4BAGf dGA=A B_AGf | 
[V:2] [E4G,4E,4]E,,4[D4B,4E,4]E,,4 | 
[V:1] d8d8 & dGA=A B_AGf dGA=A B_AG_f | 
[V:2] [D4B,4E,4]E,,4[D4B,4E,4]E,,4 | 
[V:1] eGdf egd'f' e'g'd''f'' e''g'd'f' | 
[V:2] [D4B,4E,4]z4z8 | 
[V:1] e'gdf eGDF EG,D,F, E,D,G,, z | 
[V:2] z8x4x2 z E,, | 
[V:1] !accent!d8c4d3c | 
[V:2] E,,,4x4A,4E,4 & x4E,2E2 A,2E2E,2E2 | 
[V:1] c4>B4A4x4 & z4G4A4B2c2 | 
[V:2] !accent!D8C4x4 & D2E2E,2E2 C2E2D2C2 | 
[V:1] d4d2>d2 (7:4:15c=dc=Bc^cd=ef^fg=baz/g/ | 
[V:2] B,4G,4A,8[K:clef=treble] & B,2E2G,2=E2 A,2C2=E2F2 | 
[V:1] g4{/g} f2>e2 e3 x3 =e2 | 
[V:2] E2c2B2A2[K:clef=bass] E,2[G2B,2][A2C2][G2B,2] & B,8x8 | 
[V:1] =e2>f2{/fa}_g2>f2f4[d'4f4] | 
[V:2] F,,2F2[E2=A,2]F2 [D2B,2]F2F,2F2 | 
[V:1] {/[d'f]} [c'2e2]>[b2d2][c'2e2]>[d'2f2][b8d8] | 
[V:2] x8!accent!B,4_A,4 & =A,2F2F,2F2 B,2F2_A,2_F2 | 
[V:1] e4{/eg} f2>e2a6g2 & d4d2>d2c8 | 
[V:2] G,2B,2E2E,2 A,,2F,2C2F2 | 
[V:1] {/g} [f2=d2][e2c2]f2g2e8 & A4[d2B2]A2 G2B2G2B2 | 
[V:2] B,,2F,2B,2=D2E4E,,4 | 
[V:1] !accent!A4B4c4{/G} d3c & z2D4C8x2 | 
[V:2] [F,4F,,4][G,4G,,4][A,4A,,4]E,4- | 
[V:1] c4>B4A4{/G} B3c & D2E2D2E2 C2E2F2E2 | 
[V:2] [B,4E,4E,,4]E,4[A,4A,,4]!accent!E,4- | 
[V:1] [d4G4][d2B2]>d2[c4A4]a4 & D2E2D2E2 C2E2c2A2 | 
[V:2] B,4G,,4A,,4[K:clef=treble]E2F2[K:clef=bass] & E,12A,4 | 
[V:1] [g4e4]{/g} f2>e2e6=e2 & G2B2[=d2A2]B2 G2B2G2B2 | 
[V:2] B,8x8 & z4B,,4E,4z4 | 
[V:1] f4!accent!_g2>f2[f4d4]d'4 & [e2c2]F2[e2c2]F2 B2F2!accent![b2f2]d2 | 
[V:2] =A,,2F,2C2A,,2 B,,2F,2D2_A,,2 | 
[V:1] f4e2>e2e4a4 & [f2d2B2]E2!accent![d2B2]E2 [c2-A2]E2!accent![e2c2]A2 | 
[V:2] G,,2E,2D2G,,2 A,,2E,2A,2C2 | 
[V:1] .B.=A.=A.B.B.cd.=d (3f2e2f2 (3e2d2c2 & G8A8 | 
[V:2] D,2E,2E2G,2 C,2E,2E2A,2 | 
[V:1] !mordent!B.A.B.=B .c.^c.=de =e.f.^f.g ._b._a.g.=f & G8=B8 | 
[V:2] ^C,2G,2=E2B,2 =D,2A,2F2=B,2 | 
[V:1] x4_d'2>c'2 b2za2< g2f & {/f} .f'=dee' !accent!_d'acc' bB_ca !accent!g=dAf | 
[V:2] .E,,2[K:clef=treble] [A2C2][A2C2] z2[K:clef=bass] .=D,,2[K:clef=treble] [F2=B,2][F2B,2] z2[K:clef=bass] | 
[V:1] !accent!f2>e2A8-{/A2B2A2G2A2} c3B & cEB2x4x4[G4D4] | 
[V:2] x8x4=E,4 & .E,,2D2C2E,2 C2E,2=E,2B,2 | 
[V:1] !arpeggio!B4>A4 [GE] G,(3CE^F (5:4:5Gce^fg & !arpeggio!F8x8 | 
[V:2] F,,2C,2C2C,2 G,,2C,2C2C,2 | 
[V:1] [g4G4]>[=f4=F4][e4E4]{/e}e'4 & c12x4 | 
[V:2] x2C,4x2 x2C,4x2 & A,,2C,2C2C,2 G,,2C,2C2C,2 | 
[V:1] =d'e'!mordent!d'c' d'e'f'c' (9:8:18c'/=b/d'/a/!accent!a/g/=b/^f/_g/=f/a/e/=d/c/=B/A/_G/F/ | 
[V:2] .F,,2[C2A,2=D,2][K:clef=treble] [F2C2][c2F2=D2][K:clef=bass] G,,2[=B,2F,2=D,2][D2B,2F,2][F2B,2] | 
[V:1] !accent!F4>E4 (9:8:18=D/E/D/^C/D/E/F/G/=A/=B/^c/=d/e/g/f/B/e/d/ | 
[V:2] A,,2[C2E,2][C2E,2][C2E,2] =B,,2[A,2F,2][=D2A,2F,2][D2G,2F,2] | 
[V:1] !accent!=d4>c4 _d2 A/B/A/G/ (3:2:6ABcdef | 
[V:2] C,2[=D2G,2E,2][D2G,2E,2][C2G,2E,2] F,2[_D2A,2][D2A,2][D2A,2] | 
[V:1] f2>=e2 g2>f2 .a2 {/A}!fermata!c''4-(5:4:20c''/8a'/8f'/8=d'/8_e'/8=e'/8g'/8f'/8_e'/8=d'/8c'/8b/8a/8g/8f/8_e/8=d/8c/8B/8A/8 | 
[V:2] x4A,4x2[K:clef=treble][A4=D4C4]!fermata!z2[K:clef=bass] & G,2[=E2_D2B,2] A,2[F2C2] F,2x4x2 | 
[V:1] G4{/g-}[g4G4]{/f-}[f4F4]{/C-}[c4C4] | 
[V:2] G,,2E,2C2G,2 A,,2C,2A,2F,2 | 
[V:1] {/e-}[e12E12]{/[eE]} [=d3=D3][cC] | 
[V:2] G,,2C,2A,2G,2 G,,2=B,,2G,2F,2 | 
[V:1] [c4C4]!mordent!A,G,C=D !accent![EC]Gc=d !accent![ec]gc'e' | 
[V:2] C,,2G,,2E,2 z2 C,,2C,2G,2 z2 | 
[V:1] [=d'2^f2] z2f4!accent!a4g4 & x4ce=d^F =Bed=F BedF | 
[V:2] =D,,2=D,2C2 z2 G,,2D,2=B,2 z2 | 
[V:1] [c2E2] z2 A,G,C=D !accent![EC]Gc=d !accent![ec]gc'e' | 
[V:2] C,,2G,,2E,2 z2 C,,2C,2G,2 z2 | 
[V:1] [=d'2^f2] z2f4!accent!a4g4 & x4ce=d^F =Bed=F BedF | 
[V:2] =D,,2=D,2C2 z2 G,,2D,2=B,2 z2 | 
[V:1] [c2E2] z2 !mordent!A,G,C=D !accent![EC]Gc=d !accent![ec]gc'e' | 
[V:2] C,,2G,,2E,2 x2 !accent!C,,2C,2G,2 z2 | 
[V:1] [=d'2b2] z2 =ded2 cdc2 B/c/B3 & x4B2>G2 =A2>^F2 G2=D=E | 
[V:2] G,,2=D,2[=D2B,2]D,2 [C2=A,2]D,2[B,2G,2] z2 | 
[V:1] [=A2=F2] z2 !mordent!B,=A,=D=E !accent![FD]A=d=e !accent![fd]=a=d'f' | 
[V:2] =D,,2=A,,2F,2 z2 D,,2=D,2=A,2 z2 | 
[V:1] [=e'2c'2] z2 =efe2 =ded2 c/d/c3 & x4c2>=A2 =B2>^G2 A2=E^F | 
[V:2] =A,,2=E,2[=E2C2]E,2 [=D2=B,2]E,2[C2=A,2] z2 | 
[V:1] [=B2=G2] z2!accent!g8g=ag2 & x4=e4-e=Bc=A2< ^c2A | 
[V:2] =E,,2=B,2G2B,2 =A,,2=A,2=E2A,2 | 
[V:1] [^f2=d2] z2!accent!=f8fgf2 & x4=d4-d=A^AF2< =B2F | 
[V:2] =D,2=A,2F2A,2 G,,2G,2=D2G,2 | 
[V:1] !accent!f2e2 {/e} f'2e'=d' _d'2c'b a2gf & [c4E4]f'ea2- ace2- eAc2 | 
[V:2] A,,2E,2C2E,2 A,,2E,2E2E,2 | 
[V:1] !accent![fd]Ged' [fd]Gec' [fd]Gec' [fd]Geb | 
[V:2] E,,2E,2E2E,2 E,,2E,2E2E,2 | 
[V:1] a2 z2 x2 e'=d'_d'2 c'ba2 gf & cd=de f'ea2- ace2 eAc2 | 
[V:2] .A,,2E,2C2E,2 .A,,2E,2E2E,2 | 
[V:1] !accent!f2e2 f2e2 f2e2 !accent!f2e2 & dGed' dGec' dGec' dGeb | 
[V:2] .E,,2E,2E2E,2 .E,,2E,2E2E,2 | 
[V:1] a!accent!d2 x z ded a!accent!d2 x z cdc & z AFE DA2 x z AED CA2 x | 
[V:2] .F,,2F,2A,2F,2 .E,,2E,2A,2E,2 | 
[V:1] a!accent!B2 x c!accent!B2 x c!accent!B2 x c!accent!B2e & z ACB, z ACB, z GCB, z GE2 | 
[V:2] .=D,,2=D,2A,2D,2 .E,,2E,2G,2E,2 | 
[V:1] a!accent!e2 x z ded a!accent!d2 x z cdc & x AFE DA2 x z AED CA2 x | 
[V:2] F,,2F,2A,2F,2 E,,2E,2A,2E,2 | 
[V:1] aB2 x c!accent!B2 x c!accent!B2 x c!accent!B2e & z ACB, z ACB, z GCB, z GE2 | 
[V:2] .=D,,2=D,2A,2D,2 .E,,2E,2G,2E,2 | 
[V:1] [e4B4]=d2>c2!accent!c4B7/e/ & A8G8 | 
[V:2] B,,F,=E,F, G,A,C,=D, _E,E,,B,,E, G,A,B,E | 
[V:1] e3f/e/ =d2>c2!accent!c4B4 & [B4A4]>>A4G8 | 
[V:2] .B,,F,=E,F, G,A,C,=D, _E,E,,B,,E, G,A,B,C | 
[V:1] [f4G4F4][=e2=E2]>[f2F2][g4e4c4B4G4][a4f4c4A4] & xB8x4x3 | 
[V:2] DCB,A, G,F,=E,D, C,B,,A,,G,, F,,=E,,D,,C,, | 
[V:1] .[=d'4a4f4=d4]!accent![f'8d'8a8f8][e'4c'4g4e4] | 
[V:2] !accent!=B,,,F,,A,,=D, !accent!=B,,F,A,=D =B,FA=d CEGc | 
[V:1] [b'f']a'f'c' [bf]afc [BF]AFC [B,F,]A, z2 | 
[V:2] F,4[K:clef=treble][_A4C4]z4[K:clef=bass]z2 F,C, | 
[V:1] [=d''=a']c''a'e' [=d'=a]c'ae [=d=A]cAE [=D=A,]CA,E, | 
[V:2] ^F,,2 z2!arpeggio![=A4E4^F,4]z4[F,,4^F,,,4] | 
[V:1] z4!accent!G,C=DE !accent!CE^FG !accent!EG=Bc | 
[V:2] [G,,4G,,,4]!accent!E,C,A,,G,, !accent!G,E,=D,C, !accent!CG,F,E, | 
[V:1] G2 z2 !accent!G,C=DE !accent!CE^FG !accent!EG=Bc | 
[V:2] E2 z2 !accent!E,C,A,,G,, !accent!G,E,=D,C, !accent!CG,F,E, | 
[V:1] e2 z2 G,C=DE !accent!CE^FG !accent!EG=Bc | 
[V:2] G2 z2 !accent!E,C,A,,G,, !accent!G,E,=D,C, !accent!CG,F,E, | 
[V:1] !accent!Gc=de !accent!ce^fg !accent!eg=bc' !accent!gc'=d'e' | 
[V:2] !accent!ECB,G, !accent!GE=DC !accent!cG^FE !accent!ecAG[K:clef=treble] | 
[V:1] g'=bg'bg'bg'b g'd'g'd'g'd'g'd' & !trill!=d'16 | 
[V:2] f'16 & g4z4z8 | 
[V:1] g'=bg'bg'bg'b g'bg'bg'bg'b & !trill!d'16 | 
[V:2] [g4f4=d4G4]!accent![=B4F4=D4G,4][K:clef=bass]!accent!!arpeggio![=B,4F,4=D,4G,,4]!accent![G,,4G,,,4] | 
[V:1] [c''2c'2][e'4e4][=d'2=d2] [c'2c2][b2B2][a2e2A2][g2e2A2] | 
[V:2] [C,2C,,2] [C2G,2E,2C,2][C2G,2E,2C,2][C2G,2E,2C,2] [C2A,2E,2C,2][C,2C,,2][E,3E,,3][A,A,,] | 
[V:1] ^f4f2>f2f4g4 & [e2=A2][e2A2][e2A2][e2A2] [=d2A2][d2A2][d2G2][d2G2] | 
[V:2] [C4C,4]!accent![C,8C,,8][=B,,4=B,,,4] | 
[V:1] =d'4>c'4x8 & [g2=d2][g2d2][g2d2][g2d2] [b2g2d2][=a2d2][g2d2B2][f2d2B2] | 
[V:2] [_B,,12_B,,,12][=D,3=D,,3][G,G,,] | 
[V:1] _e4e2>e2e4f4 & [=d2G2][d2G2][d2G2][d2G2] [c2G2][c2G2][c2F2][c2F2] | 
[V:2] [B,4B,,4][B,,8B,,,8][=A,,4=A,,,4] | 
[V:1] [f2c2F2]!accent![f2c2F2]!accent![f2c2F2][f2c2A2] [a2f2c2][c'2a2c2][c'2a2c2][f'2a2f2] | 
[V:2] [_A,,2_A,,,2] [A,2-A,,2][A,2A,,2] [G,2G,,2] [F,2F,,2][E,2E,,2][D,2D,,2][C,2C,,2] | 
[V:1] f'2=d'4e'2 =d'2=b4c'2 & a2!accent![a2f2][a2f2][g2e2] f2!accent![a2=d2][a2d2][g2e2] | 
[V:2] [=B,,2=B,,,2][B,,4B,,,4][C,2C,,2] [=D,2=D,,2][F,4F,,4][E,2E,,2] | 
[V:1] _b2!accent!g4a2 g2!accent!=e4f2 & [g2_d2][d2B2][d2B2][c2A2] [c2=E2][d2G2]!accent![d2G2][c2A2] | 
[V:2] [=E,2=E,,2][E,4E,,4][F,2F,,2] [G,2G,,2][B,4B,,4][A,2A,,2] | 
[V:1] .[=d4A4F4].[e4G4E4]g6e2 | 
[V:2] [=B,4=B,,4][C4C,4]G6E2 | 
[V:1] c4[=B4F4][c4E4][A4=D4-] | 
[V:2] x8C8 & C4[=D4G,4]A,4F,4 | 
[V:1] [G2=D2] z A2<=D2EF4g3e & x8x4[=d4G4] | 
[V:2] [=B,2G,2] z A,2<=D,2E,F,4[=B,,4=B,,,4] | 
[V:1] [c4G4E4][=B4G4F4][c4G4C4][A4=D4C4] | 
[V:2] [C,4C,,4][=D,4=D,,4][E,4E,,4][F,4F,,4] | 
[V:1] [G2=D2=B,2] z A2<D2EF4!accent![g3=d3G3][fdG] | 
[V:2] [G,2G,,2] z A,2<=D,2E,F,4[=B,,3=B,,,3][B,,B,,,] | 
[V:1] e4=d2>c2!accent!c6=B2 & G2G2[G2E2][G2E2] [G2F2][G2F2][G2F2][G2F2] | 
[V:2] [C,2C,,2][E,2E,,2][=B,,2=B,,,2][C,2C,,2] [=D,2=D,,2][F,2F,,2][^C,2^C,,2][D,2D,,2] | 
[V:1] c2>g2f2>e2!accent!e6=d2 & G2G2[c2G2][c2G2] [c2A2][c2A2][c2A2][c2A2] | 
[V:2] [E,2E,,2][G,2G,,2][=D,2=D,,2][E,2E,,2] [F,2F,,2][A,2A,,2][=E,2=E,,2][F,2F,,2] | 
[V:1] [=d2c2=A2] z [^dc^F] [d2c2F2] z [=ecG=E] [e2c2G2E2] z [ecG] [e2c2G2] z [^fcF] | 
[V:2] [^F,2^F,,2] z [=A,=A,,] [A,2A,,2] z [G,G,,] [G,2G,,2] z [B,B,,] [B,2B,,2] z [=A,=A,,] | 
[V:1] x8g4[d'2g2][^f'2d'2] & [f2c2F2] z [^fe=A] [f2e2A2] z [feA] [d2G2][d2G2]d2g2 | 
[V:2] [=A,2=A,,2] z [CC,] [C2C,2] z [CC,] [=B,2=B,,2][B,2B,,2][B,2B,,2][B,2B,,2] | 
[V:1] [e'2g2e2] e[e'g] =d[=bf]c[c'e] =B[g_d]A[ac] G[=e=B]F[fA] | 
[V:2] C2C2x4[=E,2=E,,2]>[F,2F,,2] [C,3C,,3][D,D,,] & C,4[G,2G,,2]>[A,2A,,2]x8 | 
[V:1] F[=dA]E[eG] F[=BG]E[cG] _D[_BG]C[AF] C[GE]C[F=D] | 
[V:2] [=B,,2=B,,,2][C,2C,,2][=D,2=D,,2][E,2E,,2] [=E,2=E,,2][F,2F,,2][G,2G,,2][A,2A,,2] | 
[V:1] !accent!G16 & [=D8=B,8]_B,8 | 
[V:2] [G,8G,,8][C,8C,,8] | 
[V:1] [G4=E4]F2_E2=D8 | 
[V:2] [C12A,12][=B,4G,4] & [F,,12F,,,12][G,,4G,,,4] | 
[V:1] [E2C2][F2=D2]G12 & x4E4[=E8C8] | 
[V:2] {/C,,}G,8B,8 & C,16 | 
[V:1] g2>a2=d2>e2f4e2d2 & G4F2>E2=D8 | 
[V:2] C16 & [A,8F,8]x4F,4 | 
[V:1] c12x4 & [E12C12][G4E4] | 
[V:2] _E,4!accent!_A,4G,4G,3G, & ^F,,8G,,8 | 
[V:1] [e8G8][=B8F8] | 
[V:2] G,4E4=D2C2D2E2 & G,,16 | 
[V:1] [c8E8]z2 z a'2<c'2d' | 
[V:2] C8x8[K:clef=treble] & A,,8z2 z a2<c2d | 
[V:1] e'4g2a2 d'2c'2a2f2 | 
[V:2] e4G2A2 d2c2A2F2 | 
[V:1] e4[A4F4][A4E4]A3{/B2A2G2A2}B & x4x8D4 | 
[V:2] E4[K:clef=bass].[A,4D,4].[A,4C,4].[A,4B,,4] | 
[V:1] !arpeggio![c8A8E8C8]{/d2}B4=A4 & x8E8 | 
[V:2] !arpeggio![A,8E,8A,,8]C2=B,2C2D2 & x8[_G,4_G,,4][F,4F,,4] | 
[V:1] [B8D8]z2 z b'2<d'2e' | 
[V:2] B,4x4x8[K:clef=treble] & [F,8B,,8]z2 z b2<d2e | 
[V:1] f'4=a2b2 e'2d'2b2_g2 | 
[V:2] f4=A2B2 e2d2B2_G2[K:clef=bass] | 
[V:1] f'8x4{/e2d2c2d2} e2[f2d2] & z4=A4[d4B4][c4_A4] | 
[V:2] F12x4 & z4C4D4B,4 | 
[V:1] [f8d8]{/gf}[e4c4][d4B4] & G16 | 
[V:2] E,16 | 
[V:1] [_c8A8][A4_F4_C4][A4F4C4] | 
[V:2] _F,8F,4F,4 | 
[V:1] [A4_F4_C4]_F,A,_CE _FA_ce _fa_c'e' | 
[V:2] _F,4_F,,A,,_C,E, _F,A,_CE[K:clef=treble] _FA_ce | 
[V:1] =d'^g=a^a =b=eg=B e^G=A^A BG^D=B, | 
[V:2] =d^G=A^A =B=EG=B,[K:clef=bass] =E^G,=A,^A, =B,G,^D,=B,, | 
[V:1] x4E,^^F,^G,^C =D^^F^G^c =d^^f^g=d' | 
[V:2] !accent![=E,4=E,,4]-E,,^^F,,^G,,^C, =D,^^F,^G,^C[K:clef=treble] =D^^F^G=d | 
[V:1] e'2 z2!accent!E4-(3EFE(13:8:13=D//E//F//G//A//B//c//_d//e//f//g//a//b// | 
[V:2] e2[K:clef=bass] z2z4D,2E,2B,2G,2 | 
[V:1] c'8(7:4:14b//c'//b//a//b//c'//a//g//a//g//f//g//b//a// A3/B/ | 
[V:2] C,2G,2B,2=E2 [F2F,2]A,2C2D2 | 
[V:1] !accent!_c4{/_g2_f2a2g2f2}_f4-(9:8:9fgfe.f.g.a.__b._c' | 
[V:2] [__E2_F,2]A,2_C2A,2 __E,2F,2C2A,2 | 
[V:1] d'8(13:8:13_c'//d'//c'//__b//c'//d'//b//a//b//a//_g//a//b// =A3/_B/ | 
[V:2] x8_G4x4 & D,2A,2_C2F2 _G,2__B,2C2=D2 | 
[V:1] .c4{/_g2f2a2g2f2}f4-!trill!f2=ef =g=abc' | 
[V:2] [E2F,2]=A,2C2A,2 E,2F,2C2A,2 | 
[V:1] d'4{/b}d''4c''4{/b'2_g'2e'2c'2b2_g2e2}c4 | 
[V:2] D,2F,2D2B,2 [_G2E,2]B,2C2G2 | 
[V:1] .B4{/b}!accent!d''4c''4{/b'2_g'2=e'2c'2b2_g2=e2}!accent!c4 | 
[V:2] [F2F,2]B,2D2F2 [=E2_G,2]B,2C2E2 | 
[V:1] (3:2:6c4 c4 c4- cdc=Bc (3e2d2c | 
[V:2] x4<B,4C4B,4 & =G,2B,2C2=E2 =A,2F2B,2F2- | 
[V:1] [c2=A2] C_G F=A^Gf =e=gf=a gb=a=c' | 
[V:2] [F2C2F,2] =A,B, A,CF=B, C_B_cF Bef=A | 
[V:1] !accent![c''=a']f'c'f !accent![c'=a]fcF !accent![c=A]FC z [cA]!accent!FC z | 
[V:2] F2 z2.F,,4[K:clef=treble]z2 z .!accent!_G z2 z[K:clef=bass] .F, | 
[V:1] [=A4_G4C4]AEG_g =aeg_g' =a'e'g'a' | 
[V:2] E,,_G,,=A,,C, E,_G,=A,C[K:clef=treble] E_G=Ac e_g=ac' | 
[V:1] _g'd'c'e' =a_gae gdce =A_GAE | 
[V:2] =afe_g ec=A_G AFEG[K:clef=bass] EC=A,_G, | 
[V:1] [B2D2] F,C B,EDB =AcB_d cedf | 
[V:2] [F,2B,,2] D,E, D,F,B,=E, F,_E_FB, =A,_G=FB, | 
[V:1] [f'd']bfB !accent![fd]BFB, [FD]B,F, !accent!_G [FD]B,A, z | 
[V:2] d2 z2[B,,4B,,,4]z2 z z z2 z B,, | 
[V:1] [=E4_D4G,4]EB,Dd =eBdd' =e'bd'e' | 
[V:2] B,,,D,,=E,,G,, B,,D,=E,G, B,D=EG[K:clef=treble] Bd=eg | 
[V:1] d'agb =edeB dAGB =EDEB, | 
[V:2] =ecBd BG=ED[K:clef=bass] =ECB,D B,G,=E,D, | 
[V:1] [F2D2A,2F,2] =E,F, [DA,]F=EF [dA]f=ef [d'a]f'=e'f' | 
[V:2] D,,2 G,,A,, D,,A,,G,A, F,A,[K:clef=treble]GA DAga | 
[V:1] !accent![a'_e']d'ad !accent![ae]dAD !accent![AE]CA, z !accent![AE]CA, z | 
[V:2] .A2 z2[K:clef=bass] .A,2 z2 .A,,2 z F z2 z A,, | 
[V:1] [_G2E2B,2_G,2] F,G, [EB,]GFG [eB]_gfg [e'b]_g'f'g' | 
[V:2] [E,2E,,2] =A,,B,, E,,B,,=A,B, E,B,[K:clef=treble]=AB EB=ab | 
[V:1] [f'e']bfB [fe]BFB, !accent![F=D]B,F, z !accent![FD]B,F, z | 
[V:2] .B2 z2[K:clef=bass] .B,2 z2 .B,,2 z _G z2 z C, | 
[V:1] [F2_C2F,2] =E,F, [F_C]_c=EF [f=B]=b=ef [f'=b]=b'=e'f' | 
[V:2] [D,2D,,2] =G,,A,, D,A,G,A,[K:clef=treble] DAGA dagf | 
[V:1] [c''g']=e'c'=e [c'g]=ec=E [cG]EC z [cG]EC z | 
[V:2] .[=e2c2] z2 .[G2C2] z2[K:clef=bass] .C,2 z _A z2 z C, | 
[V:1] [G2^C2G,2] ^F,G, [GC]^c^FG [g^c]^c'^fg [g'c']^c''^f'g' | 
[V:2] [E,2E,,2] =A,,B,, E,B,=A,B,[K:clef=treble] EB=AB eb=ag | 
[V:1] !accent![=d''=a']^f'=d'^f !accent![d'=a]f=d^F !accent![d=A]F=D z !accent![dA]FD z | 
[V:2] [^f2=d2] z2 .[=A2=D2] z2[K:clef=bass] .=D,2 z B z2 z D, | 
[V:1] !accent!Gc!accent!Be !accent!=d=a!accent!g=a' g'e'=d'g edG=D | 
[V:2] .G,,2[B,2=D,2][=D2G,2][G2B,2][K:clef=treble] .[B2=D2][K:clef=bass] .D2.G,2.B,,2 | 
[V:1] EB=A=d c=aeA Fc=B_e =d=bfB | 
[V:2] .C,2=A,2[C2E,2][E2A,2] .=D,2=B,2[=D2G,2][F2B,2] | 
[V:1] !accent!G=d!accent!cf ea!accent!g=d' c'ged cdeG | 
[V:2] .E,2[K:clef=treble][E2G,2][G2C2][c2E2] [e2G2][K:clef=bass] .E2.G,2.C,2 | 
[V:1] Fc=Be =d=bfB _Bf=ea g_d'bd | 
[V:2] =D,2=B,2[=D2F,2][F2B,2] =E,2_D2[=E2B,2][G2_D2] | 
[V:1] !accent!Ad!accent!cg !accent!fbag' f'c'ag fgac | 
[V:2] .F,2[K:clef=treble][A2C2][c2F2][f2A2] !accent![a2c2] .A2.C2.F,2 | 
[V:1] Bf=ea gd'be cgfb ac'=e'f' | 
[V:2] .G,2=E2[G2B,2][B2E2] .A,2F2[A2C2][c2F2] | 
[V:1] [_g'd'_g] z[K:clef=bass] !accent!=A,,B,, D,_G,=A,B,[K:clef=treble] !accent!_CDFB !accent!_cdb_a | 
[V:2] [B_GDB,] z[K:clef=bass] !accent!=A,,,B,,, D,,_G,,=A,,B,, _C,D,F,B,[K:clef=treble] _CDB_A | 
[V:1] _g z !accent!=A,B, D_G=AB !accent!_cdfb !accent!_c'd'b'_a' | 
[V:2] _G z[K:clef=bass] =A,,B,, D,_G,=A,B,[K:clef=treble] _CDFB _cdb_a | 
[V:1] x8_f2_e2x4 & [g'=e']g=e_e =d_d_cB !accent!_fA_ea !accent!e_e'!accent!aa' | 
[V:2] [=e2d2B2] z2z4[K:clef=bass]._C,2._E2._C2.[A2E2] | 
[V:1] x8!accent!_g2f2 !accent!ff'!accent!bb' & !accent![=a'_g']=a_gf =e_e_dc _gBfbx4 | 
[V:2] .=C,2[K:clef=treble].[=A2_G2E2].C2.[A2G2E2][K:clef=bass] .D,2[K:clef=treble].F2.D2.[B2F2] | 
[V:1] [_c''a']_c'b__b ag_gf [c'a]_c__B__B A_G_GF | 
[V:2] _c2>__B2 AG_GF2<[K:clef=bass] _C2__B, A,_G,_G,F, & [F4=D4]x4[F,4_D,4]x4 | 
[V:1] CFAc fac'b afcA FCA,F, | 
[V:2] C,F,A,C FAcB A2 .C2.F,2 F,,2 | 
[V:1] C,2 z2 AGFf edcc' agff' | 
[V:2] C,,2 z2 A,G,F,F[K:clef=treble] EDCc AGFf | 
[V:1] e'd'c'c'' f'e'd'a' c'baa' d'c'bf' | 
[V:2] edcc' feda cBAa dcBf | 
[V:1] agff' [a'f'][g'=e'][_g'_e'][f'=d'] [_f'_d'][e'c'][=d'=b][_d'_b] [c'=a][_c'_a][b_g][=a^f] | 
[V:2] AGFf ag_gf _fe=d_d c_cB=A | 
[V:1] [_a=f][g=e][_g_e][f=d] [_f_d][ec][=d=B][_d_B] [c=A][_c_A][B_G][=A^F] [_A=F]G_GF | 
[V:2] _AG_GF[K:clef=bass] _FE=D_D C_CB,=A, _A,_G,_G,_F, | 
[V:1] C2 z [c'c] !accent![c'2c2][g2c2G2] [a2c2A2]>[c'2c2]!accent![c'2c2][g2c2G2] | 
[V:2] C,2[C,4C,,4][=E,2=E,,2] [F,2F,,2][C,2C,,2] z2 [E,2E,,2] | 
[V:1] [a2c2A2]>[c'2c2][c'2c2][g2c2G2] [f2c2F2][a2c2][g2=B2F2][f2B2F2] | 
[V:2] [F,2F,,2][C,2C,,2] z2 [_E,2_E,,2] [=D,2=D,,2][D,2D,,2][_D,2_D,,2][D,2D,,2] | 
[V:1] [=e2c2G2] z [c'c][c'2c2][g2c2G2] [a2c2G2]>[c'2c2][c'2c2][g2c2G2] | 
[V:2] [C,2C,,2][C,2C,,2] z2 [=E,2=E,,2][F,2F,,2][C,2C,,2] z2 [E,2E,,2] | 
[V:1] [a2c2A2]>[c'2c2][c'2c2][g2c2G2] [f2c2F2][=e2c2F2][f2=B2F2][g2B2F2] | 
[V:2] [F,2F,,2][C,2C,,2] z2 [_E,2_E,,2] [=D,2=D,,2][D,2D,,2][_D,2_D,,2][D,2D,,2] | 
[V:1] [=e2c2G2]>!accent![c'2c2][c'2c2][g2c2G2] [a2c2A2]>!accent![c'2c2][c'2c2][g2c2G2] | 
[V:2] [C,2C,,2][C,4C,,4][=E,2=E,,2] [F,2F,,2][C,2C,,2] z2 [_E,2_E,,2] | 
[V:1] [f2c2F2]>!accent![d'2d2][d'2d2][a2c2A2] [b2B2]>!accent![d'2d2][d'2d2][a2d2A2] | 
[V:2] [_D,2_D,,2]!accent![D,4D,,4][F,2F,,2] [G,2G,,2][D,2D,,2] z2 [F,2F,,2] | 
[V:1] [g2d2G2]>[e'2e2]!accent![e'2e2][b2e2B2] [c'2e2c2][c'2e2c2][c'2=e2c2][c'2e2c2] | 
[V:2] [E,2E,,2][E,2E,,2][F,2F,,2][G,2G,,2] [A,2A,,2][A,2A,,2][A,2A,,2][A,2A,,2] | 
[V:1] [c'2f2c2][f'2c'2f2][c'2g2c2][g'2c'2g2] [a'2c'2a2][f'2c'2a2][c'2a2][a2f2c2A2] | 
[V:2] [A,2A,,2][A,2A,,2] [=E,2=E,,2][E,2E,,2] [F,2F,,2][F,2F,,2][F,2F,,2][F,2F,,2] | 
[V:1] [g2f2d2G2]>[g2f2d2G2][g2f2d2G2]> B,2=B,2> [g2f2=d2G2][g3f3d3G3] B, | 
[V:2] [B,,2A,,,2] z B,2<B,2 [B,,2B,,,2]<[=B,,2=B,,,2] =B,2<B,2 [B,,B,,,] | 
[V:1] C2> [g2=e2G2][g2e2G2]> C2D2> [g2=B2][g3B3][fBF] | 
[V:2] [C,2C,,2]> C2C2> [C,2C,,2][D,2D,,2]> [D2D,2][D3D,3][DD,] | 
[V:1] [=e4c4G4]C4!trill!=B,8{/^A,B,} | 
[V:2] [C4C,4]C,4!trill!=B,,8{/^A,,B,,} | 
[V:1] C2 z C2<G,2A, z2 z f2<A2B | 
[V:2] x8B,4A,2G,2 & C,zC,2G,,2>A,,2B,,4A,,2G,,2 | 
[V:1] c16 & z4[A4F4][G4=E4][_G4_E4] | 
[V:2] [F,4F,,4]x4x8 | 
[V:1] B4-B=AcB_A4G4 & x4F8x4 | 
[V:2] [F4=D4]_D4C4[D4B,4] | 
[V:1] {/FG} F2>=E2F2>G2.A4.A4 | 
[V:2] [C4A,4][B,4G,4][A,4F,4][=D4_C4_F,4] | 
[V:1] A4{/GB} !arpeggio![A2F2]>G2[G4E4]x4 & E4!arpeggio![F4=D4]x4B3c | 
[V:2] C4_C4B,4z4 & E,12x4 | 
[V:1] d8(15:8:15cdc=Bcc'g=bacdegfe | 
[V:2] x8A,4x4 & E,,2E2G,2E2 A,2E2E,2E2 | 
[V:1] c4>B4x4x4 & z4G4A4.B2.c2 | 
[V:2] x8C4x4 & D2E2E,2E2 C2E2D2C2 | 
[V:1] d4d2>d2 {/c=d} c/B/c/f/a/b/c'/f'/a'/b'/=d''/c''/g'/f'/=d'/c'/ | 
[V:2] B,4G,4[K:clef=treble]A,2C2F2c2 & x2E4=E4x4x2 | 
[V:1] g4(3g2f2>e2e6=e2 | 
[V:2] E2c2B2A2[K:clef=bass] x2[K:clef=treble] [G2B,2][A2C2][G2B,2][K:clef=bass] & B,8E,2x6 | 
[V:1] =e2>f2{/fa}_g2>f2f4[d'4f4] | 
[V:2] F,,2F2[E2C2F,2]F2 [D2B,2]F2F,2F2 | 
[V:1] {/[d'f]} [c'2e2]>[b2d2][c'2e2]>[d'2f2][b8d8] | 
[V:2] x8B,4A,4 & x8x2F4x2 | 
[V:1] e2>e2{/eg}f2>e2 {/[ed]}a6g2 & d2>d2d2>d2c8 | 
[V:2] G,2B,2E2E,2 A,,2F,2C2F2 | 
[V:1] {/g} [f2=d2][e2c2][f2d2]g2e8 & A4B2A2 G2B2G2B2 | 
[V:2] B,,2F,2B,2=D2E4[E,4E,,4] | 
[V:1] A4B4c4{/G} d3c & d8A2E2 F2E2 | 
[V:2] [F,4F,,4][G,4G,,4][A,4A,,4]E,4- | 
[V:1] c4>B4A4{/G} B3c & G8x8 | 
[V:2] [B,4E,4E,,4]E,4[A,4A,,4]!accent!E,4 | 
[V:1] [d4G4][d2B2]>d2c4a4 & D2E2D2E2 [c2A2]E2[a2c2]A2 | 
[V:2] x4G,,4A,,4[K:clef=treble]E2F2 & [B,4E,4]x8A,4 | 
[V:1] [g4e4]{/g} f2>e2e6=e2 & G2B2[=d2A2]B2 G2B2G2B2 | 
[V:2] [K:clef=bass]B,8x8 & z4B,,4E,4z4 | 
[V:1] f4_g2>f2f4[d'4b4] & [e2c2]F2 [e2c2]F2 [d2B2]F2 [d'2b2f2]d2 | 
[V:2] =A,,2F,2C2A,,2 B,,2D,2D2_A,,2 | 
[V:1] _f4e2>e2e4a4 & [d2B2]E2 [d2B2]E2 [e2c2A2]E2 [a2e2c2]A2 | 
[V:2] G,,2E,2D2G,,2 A,,2E,2A,2C2 | 
[V:1] (7:4:7!mordent!B2.=A2.B2.=B2.c2.d2.=d2 (3=f2.e2.f2 (3.e2._d2.c2 & G8A8 | 
[V:2] D,2E,2E2G,2 C,2E,2E2G,2 | 
[V:1] !mordent!BAB=B c^c=de =ef^fg =bz/a/gf & G8=B8 | 
[V:2] D,2G,2_F2B,2 =D,2A,2F2=B,2 | 
[V:1] x2 x e'2<_d'2 c'2<b2 a2<g2 x & {/f} f'=dee' !accent!_d'acc' !accent!bB_ca !accent!g=dAf | 
[V:2] E,,2[K:clef=treble][A2C2][A2C2] z2[K:clef=bass] .=D,,2[K:clef=treble][F2=B,2][F2B,2] z2[K:clef=bass] | 
[V:1] !accent!f2>e2A8{/ABAGA} c3B & fEB2x4x4[G4D4] | 
[V:2] E,,2_D2C2E,2 C2E,2B,2=E,2 | 
[V:1] !accent![dA]CDA cdaa' b'DEB =debb' | 
[V:2] F,,2D,2A,2D2 G,,2E,2B,2E2 | 
[V:1] c''g'a'a c'e'g'f' e'c'd'd (5:4:5fac'ba | 
[V:2] A,,2F,2C2F2 B,,2F,2D2F2 | 
[V:1] g/a/g/^f/g/a/b/c'/e'/d'/b/g/=e/c/d/B/!accent!A8 | 
[V:2] =E,2B,2G2D2 F,2A,2F2D2 | 
[V:1] (5:4:10=ABcBA Bcedc!accent!c8- | 
[V:2] G,2B,2=E2_D2 A,2C2G2F2 | 
[V:1] !accent!c=BFB fBf=b f=bf'=b f'=b'f'f'' | 
[V:2] x4<A,4x2A,4x2 & =D,2A,2G2F2 _D,2A,2G2F2 | 
[V:1] c''f'c'f' c'ff'c' !accent!bff'b !accent!=bff'b | 
[V:2] x4<A,4x8 & C,2A,2G2F2 D,2F2 =D,2F2 | 
[V:1] c'2 [g'=e']c'' _d'[e'c']g'=b [c'_b]=a[c'_a]f' g[_af]c'c | 
[V:2] =E,2 G^F =F=E_E=D _DC=B,_B, =A_AGF & x8G,,4z4 | 
[V:1] [g2=e2] [ge]c' _d[ec]g=B [c_B]=A[c_A]f G[AF]cC | 
[V:2] C2 G^F =F=E_E=D _DC=B,_B, =A,_A,G,F, & G,,4z4A,,4z4 | 
[V:1] [d2G2F2D2] !accent!d''f' !accent!b'd'!accent!g'b !accent!f'g!accent!d'f !accent!bd!accent!gB | 
[V:2] B,,4[K:clef=treble]!accent![f4B4G4]z8 | 
[V:1] fG!accent!dF !accent!BD!accent!BB,[F4G,4][=E4C4] | 
[V:2] z8[K:clef=bass][D,4D,,4][C,4C,,4] | 
[V:1] [F2A,2] z2 [A,F,]CFG !accent![AF]cfg !accent![af]c'f'a' | 
[V:2] F,,2C,2z4A,,2F,2C2 z2 | 
[V:1] .[g'2=b2] z2=b4!accent!d'4c'4 & x4fag=B =eag_B eagB | 
[V:2] G,,2G,2F2 z2 C,2G,2=E2 z2 | 
[V:1] [f2A2] z2 !accent![A,F,]CFG !accent![AF]cfg !accent![af]c'f'a' | 
[V:2] F,,2C,2z4A,,2F,2C2 z2 | 
[V:1] .[g'2=b2] z2=b4!accent!d'4c'4 & x4[=bf]ag=B [d'=e]ag_B eagB | 
[V:2] G,,2G,2F2 z2 C,2G,2=E2 z2 | 
[V:1] .[f2A2] z2 !accent![A,F,]CFG !accent![AF]cfg !accent![af]c'f'a' | 
[V:2] F,,2C,2z4A,,2F,2C2 z2 | 
[V:1] [g'2_e'2] z2 gag2 fgf2 e/f/e3 & x4!accent![g2e2]>c2 !accent!=d2>=B2 !accent!c2G=A | 
[V:2] .C,2G,2[G2E2]G,2 [F2=D2]G,2[E2C2] z2 | 
[V:1] [=d2B2] z2 !accent![B,G,]=DG=A !accent![BG]dg=a !accent![bg]=d'g'b' | 
[V:2] G,,2=D,2z4B,,2G,2!accent!=D2 z2 | 
[V:1] [=a'2f'2] z2 =aba2 gag2 f/g/f3 & x4!accent!f2>d2 !accent!=e2>^c2 !accent!d2=A=B | 
[V:2] =D,2=A,2[K:clef=treble] [=A2F2]=A,2 [G2=E2]A,2[F2=D2] z2[K:clef=bass] | 
[V:1] [=e2=c2] z2c'8c'=d'c'2 & x4=a4-a=ef=d2< ^f2d | 
[V:2] .=A,,2=A,2=E2A,2 .=D,2A,2[K:clef=treble] =D2=A2[K:clef=bass] | 
[V:1] =b2 z2_b8bc'b2 & g2 x2g4-g=d^dB2< =e2B | 
[V:2] G,,2G,2=D2G,2 C,2G,2C2G2 | 
[V:1] b2a2 b'2a'=g' _g'2f'e' d'2c'b & [f4A4]b'ad'2- d'fa2- adf2 | 
[V:2] D,2A,2F2A,2 D,2A,2A2A,2 | 
[V:1] [b_g]ca_g' [bg]caf' [bg]caf' [bg]cae' | 
[V:2] A,,2[K:clef=treble]A,2[_G2E2]A,2[K:clef=bass] A,,2[K:clef=treble]A,2A2A,2[K:clef=bass] | 
[V:1] d'2 x2 x2 a'g'_g'2 f'e'd'2 c'b & f_g=ga {/a} b'ad'2- d'fa2- adf2 | 
[V:2] D,2A,2F2A,2 D,2A,2A2A,2 | 
[V:1] b2a2 b2a2 b2!accent!a2 b2a2 & _gca_g' gcaf' gcaf' gcae' | 
[V:2] A,,2A,2[K:clef=treble] [_G2E2]A,2[K:clef=bass] .A,,2A,2[K:clef=treble] A2A,2[K:clef=bass] | 
[V:1] d'_g2 x z gag d'g2 x z fgf & z !accent!dBA _G2<d2 z dAG Fd3 | 
[V:2] B,,2_G,2D2B,,2 A,,2F,2D2A,,2 | 
[V:1] d'!accent!e2 x f!accent!e2 x f!accent!e2 x f!accent!e2 x & z dFE z dFE z cFE z cAa | 
[V:2] G,,2E,2D2G,,2 A,,2E,2C2A,,2 | 
[V:1] d'!accent!a2 x z _gag d'!accent!g2 x z fgf & z dBA _G2<!accent!d2 z dAG F!accent!d3 | 
[V:2] B,,2_G,2D2B,,2 A,,2F,2D2A,,2 | 
[V:1] d'!accent!e2 x f!accent!e2 x f!accent!e2 x f!accent!e2a & z !accent!dFE z dFE z cFE z cA2 | 
[V:2] G,,2E,2D2G,,2 A,,2E,2C2A,,2 | 
[V:1] [a4e4]g2f2f4e7/a/ & !accent!d8c8 | 
[V:2] E,B,=A,B, CDF,G, ._A,A,,E,A, CDEA | 
[V:1] [a3e3]b/a/ g2>f2f7e & d8c8 | 
[V:2] .E,B,=A,B, CDF,G, _A,A,,E,A, CDEF | 
[V:1] [b4c4B4][=a2=A2]>[b2B2][c'4=a4f4c4][d'4b4f4d4] & e8x8 | 
[V:2] _GFE_D CB,=A,_G, F,E,D,C, B,,_A,,_G,,F,, | 
[V:1] [_g'4e'4b4]c'4[f'4d'4][b4g4] & _g8f8 | 
[V:2] .E,,B,,E,_G, A,,E,A,C .D,A,DF .G,D[K:clef=treble]_GB | 
[V:1] [e'4b4]!accent!=a2>b2c'4[d'4b4f4d4] & [_g12e12]x4 | 
[V:2] CE_GB =AGEC[K:clef=bass] =A,_G,F,E, D,C,B,,=A,, | 
[V:1] f4=e2>f2x8 & !accent![d8B8][g4=e4c4G4][a4f4c4A4] | 
[V:2] G,,B,,D,A, G,F,=E,D, C,B,,A,,G,, F,,_E,,D,,C,, | 
[V:1] [a4f4d4A4][K:clef=bass]!accent!F,=B,DF[K:clef=treble] !accent!B,DF=B !accent!FBdf | 
[V:2] !accent!=B,,,D,,F,,=B,, F,,B,,D,F, B,,D,F,=B, F,B,DF | 
[V:1] !accent!=Bdf=b fdBF !accent!DFBF D=B,F,D, | 
[V:2] =B,DF=B FDB,F, D,F,B,F, D,=B,,F,,D,, | 
[V:1] C,2 G,B, A,F,CE DB,GB AFAe | 
[V:2] C,,2 =E,,D, F,,C,=A,,_G, B,,F,=E,_D F,C=A,_G | 
[V:1] dBgb afc'e' d'b=g'b' =a'f'g'b' | 
[V:2] B,F=Ed Fc=A_g[K:clef=treble] Bf=ed' fc'ed' | 
[V:1] a'f'c'b afcB AFCB, A,F,C,B,, | 
[V:2] [c'2f2] z2[K:clef=bass] FCA,G, F,C,A,,G,, F,,C,,A,,,G,,, | 
[V:1] !accent!A,,C,D,A, !accent!=A,CF=A B!accent!dfb !accent!d'f'b'f'' | 
[V:2] [F,,2F,,,2] z2 !accent![E,2E,,2]F,2 !accent![D,2D,,2]F,2 !accent![B,,2B,,,2]G,2 | 
[V:1] c''2 z2 C,F,A,=B, CFA=B cGAF | 
[V:2] [C2A,2F,2C,2] z2 C,,F,,A,,=B,, C,F,A,=B, CG,A,F, | 
[V:1] CFA=B cfa=b c'gaf cfab | 
[V:2] C,F,A,=B,[K:clef=treble] CFA=B cGAF CFAB | 
[V:1] af'a'=b' c''g'a'f' c'f'a'b' c''g'a'f' | 
[V:2] cfa=b c'gaf cfab c'gaf | 
[V:1] c'f'a'=b' c''g'a'=e' f'c'd'=b c'gaf | 
[V:2] cfa=b !accent!c'g!accent!a=e !accent!fc!accent!d=B !accent!cG!accent!AF | 
[V:1] c'=ec'ec'=ec'=e c'ec'ec'ec'e & !trill!g16 | 
[V:2] !trill!B16 & C4z4z8 | 
[V:1] c'=ec'ec'ec'e c'ec'ec'ec'e & !trill!g16 | 
[V:2] B4[K:clef=bass]!arpeggio![=E4B,4G,4C,4]!accent![C,4C,,4]!accent![C,,4C,,,4] | 
[V:1] [f'2f2] [a2f2A2][a2f2A2][a2f2A2] !accent![a2f2A2][a2f2A2][a2f2A2][a2f2A2] | 
[V:2] [F,,2F,,,2][F4F,4][=B,2=B,,2] [C2C,2][D4D,4][C2C,2] | 
[V:1] [a2f2A2][c'2a2f2][c'2a2f2][f'2a2f2] [f'2a2f2][a'2f'2a2][a'2f'2a2][a2f2A2] | 
[V:2] [F,2F,,2][A,2A,,2][C,2C,,2][A,2A,,2][F,4F,,4][E,4E,,4] | 
[V:1] [a2f2A2][a2f2A2][a2f2A2][a2f2A2] [a2f2A2][a2f2A2][a2f2A2][a2f2A2] | 
[V:2] [D,2D,,2][D4D,4][G,2G,,2] [A,2A,,2][B,4B,,4][A,2A,,2] | 
[V:1] [a2f2A2][d'2f2d2][d'2a2f2][f2d2A2] [f'2d'2a2][a'2f'2a2][a'2f'2a2][a2f2A2] | 
[V:2] [D,2D,,2][F,2F,,2][A,,2A,,,2][F,2F,,2][D,4D,,4][C,4C,,4] | 
[V:1] [a4f4=d4A4]a8g2f2 & x4=d12 | 
[V:2] [=B,,4=B,,,4][K:clef=treble]F8G2A2 & x4=B,12 | 
[V:1] [=e4_d4][d'4e4d4][c'2f2c2] z f2<A2B | 
[V:2] [G4_B,4][K:clef=bass][G4=E4B,4][A2F2C2A,2] z2[F4D4] | 
[V:1] A4A4[G4=E4][=A4_G4_E4] & F8x8 | 
[V:2] C16 | 
[V:1] B6cB[A4F4]{/A} G3F & [F8D8]C4[=E3B,3]A, | 
[V:2] D4B,4C4C,4 | 
[V:1] [F2A,2]>F2A,2>B,2C4[g4=e4c4G4] | 
[V:2] F,2>F,2A,,2>B,,2C,4[C,4C,,4] | 
[V:1] [a2f2c2A2] z F2<A,2B,C4[g4=e4c4=A4] | 
[V:2] [F,2F,,2] z F,2<A,,2B,,C,4[C,4C,,4] | 
[V:1] [a4f4c4]z4[f'4a4f4]z4 | 
[V:2] [F,4F,,4]z4[F4C4F,4]z4 | 
[V:1] !fermata![F16F,16] |]  
[V:2] !fermata![F,,16F,,,16] |]
